images/ctx.svg

<svg height="250" viewBox="0 0 250 250" width="250" xmlns="http://www.w3.org/2000/svg" xmlns:xlink="http://www.w3.org/1999/xlink"><linearGradient id="a" gradientUnits="userSpaceOnUse" x1="29.29686" x2="220.703012" y1="69.74605608688" y2="180.25381591312"><stop offset="0" stop-color="#1d1d3c"/><stop offset=".11" stop-color="#221e43"/><stop offset=".27" stop-color="#302256"/><stop offset=".46" stop-color="#482876"/><stop offset=".68" stop-color="#6931a2"/><stop offset=".91" stop-color="#923bda"/><stop offset="1" stop-color="#a440f2"/><stop offset="1" stop-color="#38d6b2"/></linearGradient><path d="m250 125c0 69.035156-55.964844 125-125 125s-125-55.964844-125-125 55.964844-125 125-125 125 55.964844 125 125zm0 0" fill="#1d1d3c"/><path d="m235.492188 125c0 61.023438-49.46875 110.492188-110.492188 110.492188s-110.492188-49.46875-110.492188-110.492188 49.46875-110.492188 110.492188-110.492188 110.492188 49.46875 110.492188 110.492188zm0 0" fill="url(#a)"/><path d="m227.65625 125c0 56.695312-45.960938 102.65625-102.65625 102.65625s-102.65625-45.960938-102.65625-102.65625 45.960938-102.65625 102.65625-102.65625 102.65625 45.960938 102.65625 102.65625zm0 0" fill="#1d1d3c"/><path d="m64.078125 53.867188v142.265624h121.851563v-142.265624zm0 0" fill="#1d1d3c"/><path d="m125.09375 94.425781v40.683594h40.515625v20.378906h-81.214844v-81.296875h81.214844v20.234375zm0 0" fill="#fff"/><path d="m84.394531 176.214844h81.214844v4.394531h-81.214844zm0 0" fill="#a440f2"/></svg>

<?xml version="1.0" encoding="UTF-8"?>
<svg xmlns="http://www.w3.org/2000/svg" xmlns:xlink="http://www.w3.org/1999/xlink" width="250px" height="250px" viewBox="0 0 250 250" version="1.1">
<defs>
<linearGradient id="linear0" gradientUnits="userSpaceOnUse" x1="60" y1="142.839996" x2="452" y2="369.160004" gradientTransform="matrix(0.488281,0,0,0.488281,0,0)">
<stop offset="0" style="stop-color:rgb(11.372549%,11.372549%,23.529412%);stop-opacity:1;"/>
<stop offset="0.11" style="stop-color:rgb(13.333334%,11.764706%,26.274511%);stop-opacity:1;"/>
<stop offset="0.27" style="stop-color:rgb(18.82353%,13.333334%,33.725491%);stop-opacity:1;"/>
<stop offset="0.46" style="stop-color:rgb(28.235295%,15.686275%,46.27451%);stop-opacity:1;"/>
<stop offset="0.68" style="stop-color:rgb(41.176471%,19.215687%,63.529414%);stop-opacity:1;"/>
<stop offset="0.91" style="stop-color:rgb(57.254905%,23.137255%,85.490197%);stop-opacity:1;"/>
<stop offset="1" style="stop-color:rgb(64.313728%,25.098041%,94.901961%);stop-opacity:1;"/>
<stop offset="1" style="stop-color:rgb(21.960784%,83.92157%,69.803923%);stop-opacity:1;"/>
</linearGradient>
</defs>
<g id="surface1">
<path style=" stroke:none;fill-rule:nonzero;fill:rgb(11.372549%,11.372549%,23.529412%);fill-opacity:1;" d="M 250 125 C 250 194.035156 194.035156 250 125 250 C 55.964844 250 0 194.035156 0 125 C 0 55.964844 55.964844 0 125 0 C 194.035156 0 250 55.964844 250 125 Z M 250 125 "/>
<path style=" stroke:none;fill-rule:nonzero;fill:url(#linear0);" d="M 235.492188 125 C 235.492188 186.023438 186.023438 235.492188 125 235.492188 C 63.976562 235.492188 14.507812 186.023438 14.507812 125 C 14.507812 63.976562 63.976562 14.507812 125 14.507812 C 186.023438 14.507812 235.492188 63.976562 235.492188 125 Z M 235.492188 125 "/>
<path style=" stroke:none;fill-rule:nonzero;fill:rgb(11.372549%,11.372549%,23.529412%);fill-opacity:1;" d="M 227.65625 125 C 227.65625 181.695312 181.695312 227.65625 125 227.65625 C 68.304688 227.65625 22.34375 181.695312 22.34375 125 C 22.34375 68.304688 68.304688 22.34375 125 22.34375 C 181.695312 22.34375 227.65625 68.304688 227.65625 125 Z M 227.65625 125 "/>
<path style=" stroke:none;fill-rule:nonzero;fill:rgb(11.372549%,11.372549%,23.529412%);fill-opacity:1;" d="M 64.078125 53.867188 L 64.078125 196.132812 L 185.929688 196.132812 L 185.929688 53.867188 Z M 64.078125 53.867188 "/>
<path style=" stroke:none;fill-rule:nonzero;fill:rgb(100%,100%,100%);fill-opacity:1;" d="M 125.09375 94.425781 L 125.09375 135.109375 L 165.609375 135.109375 L 165.609375 155.488281 L 84.394531 155.488281 L 84.394531 74.191406 L 165.609375 74.191406 L 165.609375 94.425781 Z M 125.09375 94.425781 "/>
<path style=" stroke:none;fill-rule:nonzero;fill:rgb(64.313728%,25.098041%,94.901961%);fill-opacity:1;" d="M 84.394531 176.214844 L 165.609375 176.214844 L 165.609375 180.609375 L 84.394531 180.609375 Z M 84.394531 176.214844 "/>
</g>
</svg>
